X:35
T:An B\'othar \'o Thuaidh go Tr\'a L\'i
T:Road to Tralee, The
R:slide
H:See also "Is Maith le Nora", #69
Z:id:hn-slide-35
M:6/8
K:D
ABA A2F|DED D2B|ABA AGF|G3 B2G|ABA A2F|DED D2F|EFE E2F|G3 B2G:|
|:ABc d2B|cBA BAF|ABc d2c|B3 e3|ABc d2B|cBA BAF|EFE E2F|G3 B2G:|
<end>
<start>
